src/asset/24px/id-badge.svg

<svg width="24" height="24" viewBox="0 0 24 24" fill="none" xmlns="http://www.w3.org/2000/svg">
<path d="M16 7.99973C15.4477 7.99973 15 8.44744 15 8.99973C15 9.55201 15.4477 9.99973 16 9.99973H17C17.5523 9.99973 18 9.55201 18 8.99973C18 8.44744 17.5523 7.99973 17 7.99973H16Z" fill="currentColor"/>
<path d="M15 12.9997C15 12.4474 15.4477 11.9997 16 11.9997H17C17.5523 11.9997 18 12.4474 18 12.9997C18 13.552 17.5523 13.9997 17 13.9997H16C15.4477 13.9997 15 13.552 15 12.9997Z" fill="currentColor"/>
<path fill-rule="evenodd" clip-rule="evenodd" d="M19 3.99973H5C3.34315 3.99973 2 5.34287 2 6.99973V16.9997C2 18.6566 3.34315 19.9997 5 19.9997H19C20.6569 19.9997 22 18.6566 22 16.9997V6.99973C22 5.34287 20.6569 3.99973 19 3.99973ZM15 17.9997H19C19.5523 17.9997 20 17.552 20 16.9997V6.99973C20 6.44744 19.5523 5.99973 19 5.99973H5C4.44772 5.99973 4 6.44744 4 6.99973V15.7066C4.28296 15.3873 4.60367 15.1136 4.93507 14.8864C5.27074 14.6563 5.63609 14.4594 6.02305 14.2963C5.86448 14.1106 5.72706 13.8945 5.61909 13.6534C5.48332 13.3508 5.41193 13.0496 5.39005 12.7699C5.36273 12.4208 5.42777 12.0762 5.57177 11.7678L5.57044 11.6006C5.56844 11.4216 5.56775 11.2058 5.58235 11.0009C5.59569 10.8138 5.63054 10.4641 5.78834 10.0922C5.98009 9.64019 6.32102 9.22886 6.81704 8.96513C6.88723 8.92781 6.95687 8.89551 7.02502 8.86752C7.15097 8.72135 7.31469 8.56558 7.52182 8.42985C8.05238 8.0822 8.61269 8.01682 8.98453 8.0032C8.99728 8.00273 9.01003 8.00239 9.02278 8.00216L9.14472 8.00003C9.15638 7.99983 9.16804 7.99973 9.1797 7.99973C9.50186 7.99973 10.0638 8.02777 10.6452 8.23111C11.2354 8.43752 12.1162 8.93206 12.4994 10.0178C12.5748 10.2316 12.6134 10.4567 12.6134 10.6834C12.6134 10.9697 12.5483 11.1994 12.5388 11.233L12.5379 11.2363C12.5175 11.3109 12.4964 11.3726 12.4848 11.4059C12.4628 11.4689 12.4387 11.5304 12.4297 11.5532L12.428 11.5576L12.4159 11.5887L12.4155 11.5898C12.4231 11.6551 12.4278 11.7204 12.4302 11.7841C12.5181 11.9862 12.5729 12.2034 12.5902 12.4275C12.617 12.7727 12.5685 13.1349 12.4464 13.4863C12.3568 13.7475 12.245 13.9484 12.1577 14.0852C12.1463 14.1031 12.1349 14.1204 12.1246 14.1359C12.0984 14.1777 12.0706 14.2187 12.0412 14.2588C12.0288 14.2757 12.0162 14.2923 12.0034 14.3087C12.3899 14.4739 12.7546 14.673 13.0892 14.9053C13.9484 15.5016 14.7354 16.4145 14.9651 17.6276C14.9885 17.7513 15 17.8759 15 17.9997ZM13 17.9997C12.8367 17.1373 12.0035 16.3879 10.8237 15.9996C10.724 15.9668 10.6219 15.9365 10.5174 15.909C10.2766 15.8456 10.0236 15.7967 9.76091 15.7641L9.52563 15.7348V14.281L9.63199 14.201C9.66387 14.1772 9.69587 14.1478 9.72776 14.1135C9.80638 14.0287 9.88436 13.9134 9.95835 13.7733C10.0359 13.6265 10.1091 13.4525 10.174 13.2582L10.2352 13.0758H10.4286V13.0747C10.4293 13.0714 10.4347 13.0637 10.4432 13.0515C10.4678 13.0165 10.5185 12.9443 10.5559 12.8337C10.5837 12.7548 10.5947 12.6866 10.5969 12.634C10.5977 12.6144 10.5974 12.597 10.5962 12.582L10.3593 12.6076L10.4071 12.1782C10.4155 12.1146 10.4237 12.0528 10.4286 11.9947C10.434 11.9306 10.4354 11.8709 10.4286 11.8183C10.405 11.6235 10.4096 11.4585 10.4286 11.3178C10.4339 11.2787 10.4403 11.2414 10.4475 11.2059C10.4793 11.0497 10.5269 10.9277 10.565 10.8301C10.5854 10.7778 10.6134 10.7063 10.6134 10.6834C10.6008 10.6479 10.5863 10.6141 10.5698 10.5821C10.3118 10.0794 9.59835 9.99973 9.1797 9.99973L9.05776 10.0019C8.60654 10.0184 8.53671 10.1522 8.45614 10.308C8.38952 10.436 8.27823 10.6498 7.98558 10.6754C7.95885 10.6778 7.9338 10.6808 7.91031 10.6845C7.59307 10.7343 7.56285 10.9156 7.57035 11.5815L7.57196 11.7841C7.57196 11.831 7.57299 11.8789 7.575 11.9277C7.57984 12.0447 7.59041 12.1665 7.60634 12.2908L7.65791 12.6902L7.38396 12.614C7.38632 12.6442 7.39211 12.6811 7.40355 12.7231C7.4129 12.7573 7.42601 12.795 7.44412 12.8353C7.48351 12.9234 7.52931 12.9844 7.56576 13.0212C7.58995 13.0457 7.61003 13.0595 7.62138 13.0635L7.77931 13.0907L7.82389 13.2406C7.89065 13.4409 7.96659 13.6202 8.04771 13.7717L8.05844 13.7916L8.05977 13.794C8.15007 13.9586 8.24647 14.0888 8.34353 14.1756C8.36548 14.1952 8.38745 14.2126 8.4094 14.2277L8.52543 14.3077V15.7295L8.28854 15.7572C8.02601 15.7878 7.77306 15.8345 7.53202 15.8955C7.49034 15.906 7.44901 15.917 7.40806 15.9284L7.36875 15.9395C7.30288 15.9584 7.23799 15.9783 7.17412 15.9993C5.99396 16.3875 5.16302 17.1347 5.00002 17.9992L13 17.9997Z" fill="currentColor"/>
</svg>

<svg width="24" height="24" fill="none" xmlns="http://www.w3.org/2000/svg"><path d="M16 8a1 1 0 100 2h1a1 1 0 100-2h-1zM15 13a1 1 0 011-1h1a1 1 0 110 2h-1a1 1 0 01-1-1z" fill="currentColor"/><path fill-rule="evenodd" clip-rule="evenodd" d="M19 4H5a3 3 0 00-3 3v10a3 3 0 003 3h14a3 3 0 003-3V7a3 3 0 00-3-3zm-4 14h4a1 1 0 001-1V7a1 1 0 00-1-1H5a1 1 0 00-1 1v8.707c.283-.32.604-.593.935-.82.336-.23.701-.428 1.088-.59a2.67 2.67 0 01-.404-.644 2.672 2.672 0 01-.229-.883 2 2 0 01.182-1.002L5.57 11.6a7.452 7.452 0 01.012-.6c.014-.187.049-.537.206-.909a2.27 2.27 0 011.237-1.224c.126-.147.29-.302.497-.438.53-.348 1.09-.413 1.463-.427h.038L9.145 8h.035c.322 0 .884.028 1.465.231.59.207 1.471.701 1.854 1.787.076.214.114.439.114.665 0 .287-.065.516-.074.55l-.001.003a2.587 2.587 0 01-.108.317l-.002.005-.012.03v.002a2.5 2.5 0 01.014.194c.088.202.143.42.16.643a2.62 2.62 0 01-.144 1.06 2.8 2.8 0 01-.321.649 2.042 2.042 0 01-.122.173 6.12 6.12 0 011.086.596c.86.597 1.646 1.51 1.876 2.723.024.123.035.248.035.372zm-2 0c-.163-.863-.996-1.612-2.176-2a5.76 5.76 0 00-1.063-.236l-.235-.03v-1.453l.106-.08a.724.724 0 00.096-.088c.078-.084.156-.2.23-.34.078-.146.151-.32.216-.515l.061-.182h.194v-.001c0-.004.006-.011.014-.023a.82.82 0 00.154-.418v-.052l-.238.026.048-.43c.008-.063.017-.125.022-.183a.85.85 0 000-.177 1.955 1.955 0 01.018-.612 2.18 2.18 0 01.118-.376c.02-.052.048-.124.048-.147a.817.817 0 00-.043-.1c-.258-.504-.972-.583-1.39-.583l-.122.002c-.451.016-.521.15-.602.306-.066.128-.178.342-.47.367a1.14 1.14 0 00-.076.01c-.317.05-.347.23-.34.896l.002.203.003.144c.005.117.015.238.031.363l.052.4-.274-.077a.769.769 0 00.182.407.181.181 0 00.055.042l.158.028.045.15c.067.2.143.38.224.53l.01.02.002.003c.09.165.186.295.284.382.021.02.043.037.065.052l.116.08v1.421l-.236.028a5.843 5.843 0 00-.88.171l-.04.011-.195.06c-1.18.388-2.011 1.136-2.174 2h8z" fill="currentColor"/></svg>
